X:1
T:Drum Major, The
M:6/8
L:1/8
R:Quickmarch
B:Harding's All Round Collection, No. 153  (1905)
Z:AK/Fiddler's Companion
K:G
(d/c/)|Bdg gfg|Bdg gfg|eaa abg|fge dec|
Bdg gfg|Bdg gfg|eag fef|gdb g2:|
|:(f/g/)|add d^cd|bdd d^cd|add bdd|agf edc|
Bdg gfg|Bdg gfg|eag fef|gdb g2:||

